src/main/resources/icons/SpringWebflowIcons/resources/icons/SpringWebFlow.svg

<svg xmlns="http://www.w3.org/2000/svg" width="16" height="16" viewBox="0 0 16 16">
  <g fill="none" fill-rule="evenodd">
    <path fill="#62B543" fill-opacity=".7" d="M7.55946328,14.3004335 C6.44495392,14.2812244 5.36365364,14.2131547 4.44717245,14.2546012 C4.44717245,14.2546012 3.94283089,14.2832335 3.43439732,14.3670851 C3.43439732,14.3670851 3.62672229,14.2852786 3.87224354,14.2004045 C5.36054413,13.6859936 6.26533624,13.4773727 7.13213937,13.1468198 C7.22737817,13.5526385 7.37205307,13.93941 7.55946328,14.3004335 Z M12.8904929,7.07906403 C12.9581866,6.8479856 13.0130069,6.61525699 13.0537151,6.3817562 C12.9754382,6.61096606 12.8827783,6.83729222 12.7772033,7.06004394 C12.523931,7.02051644 12.2643614,7 12,7 C9.23857625,7 7,9.23857625 7,12 C7,12.017905 7.00009411,12.035788 7.00028187,12.0536486 C5.32932139,12.6440309 2.50243959,13.2064833 2.50243959,13.2074791 L2.38172498,13.1430565 C0.354128707,12.1572892 0.297863422,7.76939754 3.97863607,6.35516911 C5.59293826,5.73446293 7.13665308,6.07600472 8.88087692,5.65981457 C10.7417233,5.21805992 12.8961723,3.81917019 13.7718647,2 C14.3360663,3.67136171 14.9649591,5.88395037 14.9985895,7.99857475 C14.3888708,7.54093228 13.6711394,7.21939624 12.8904929,7.07906403 Z"/>
    <path fill="#40B6E0" d="M12.5810906,13.8467754 L15.0995511,11.3283149 L14.4710117,10.6997755 L11.9525512,13.218236 L11.0171576,12.2828424 L11.0171576,14.7828424 L13.5171576,14.7828424 L12.5810906,13.8467754 Z M14.7852814,14.7852814 C13.2231842,16.3473785 10.6905243,16.3473785 9.12842712,14.7852814 C7.56632996,13.2231842 7.56632996,10.6905243 9.12842712,9.12842712 C10.6905243,7.56632996 13.2231842,7.56632996 14.7852814,9.12842712 C16.3473785,10.6905243 16.3473785,13.2231842 14.7852814,14.7852814 Z M11.9283149,10.7283149 L12.917767,11.717767 L12.917767,9.217767 L10.417767,9.217767 L11.2997755,10.0997755 L8.81415744,12.5853936 L9.44269681,13.213933 L11.9283149,10.7283149 Z"/>
  </g>
</svg>

<svg xmlns="http://www.w3.org/2000/svg" width="16" height="16" viewBox="0 0 16 16"><rect id="frame" width="16" height="16" fill="none"/><g fill="none" fill-rule="evenodd"><path fill="#62B543" fill-opacity=".7" d="M7.56 14.3c-1.115-.019-2.196-.087-3.113-.045 0 0-.504.028-1.013.112 0 0 .193-.082.438-.167 1.489-.514 2.393-.723 3.26-1.053.095.406.24.792.427 1.153zm5.33-7.22c.068-.232.123-.465.164-.698-.079.229-.171.455-.277.678A5 5 0 0 0 7 12.054c-1.67.59-4.498 1.152-4.498 1.153l-.12-.064C.354 12.157.298 7.77 3.979 6.355c1.614-.62 3.158-.279 4.902-.695 1.86-.442 4.015-1.84 4.89-3.66.565 1.671 1.194 3.884 1.228 5.999a4.976 4.976 0 0 0-2.109-.92z"/><path fill="#40B6E0" d="M12.581 13.847l2.519-2.519-.629-.628-2.518 2.518-.936-.935v2.5h2.5l-.936-.936zm2.204.938a4 4 0 1 1-5.657-5.657 4 4 0 0 1 5.657 5.657zm-2.857-4.057l.99.99v-2.5h-2.5l.882.882-2.486 2.485.629.629 2.485-2.486z"/></g></svg>
